Adwaita++/apps/16/steam.svg

<svg height="16" viewBox="0 0 16 16" width="16" xmlns="http://www.w3.org/2000/svg">
  <path d="m12.499992 2a3.5 3.5 0 0 0 -3.4531254 2.9414062l-2.4785157 4.1152348a3 3 0 0 0 -.5683594-.056641 3 3 0 0 0 -1.3066401.302734l-4.42578195-2.5546871a10 10 0 0 0 -.267578 2.2519531 10 10 0 0 0 .07227 1.099609l2.93554695 1.69336a3 3 0 0 0 -.0078.207031 3 3 0 0 0 3.0000001 3 3 3 0 0 0 3-3 3 3 0 0 0 -.015625-.283203l4.3769535-2.830078a3.5 3.5 0 0 0 2.638672-3.386719 3.5 3.5 0 0 0 -3.5-3.5zm0 1a2.5 2.5 0 0 1 2.5 2.5 2.5 2.5 0 0 1 -2.5 2.5 2.5 2.5 0 0 1 -2.5000004-2.5 2.5 2.5 0 0 1 2.5000004-2.5zm0 1a1.5 1.5 0 0 0 -1.5 1.5 1.5 1.5 0 0 0 1.5 1.5 1.5 1.5 0 0 0 1.5-1.5 1.5 1.5 0 0 0 -1.5-1.5zm-6.5000005 6a2 2 0 0 1 2 2 2 2 0 0 1 -2 2 2 2 0 0 1 -1.9589841-1.611328l.705078.408203c.7196669.4155 1.633328.170839 2.048828-.548828s.170839-1.633328-.5488281-2.048828l-.3378906-.195313a2 2 0 0 1 .0917968-.003906z" fill="#444"/>
</svg>

<svg xmlns="http://www.w3.org/2000/svg" width="16" height="16" version="1.1" viewBox="0 0 16 16">
 <path fill="#444" d="M 12.499992,2 A 3.5,3.5 0 0 0 9.0468666,4.9414062 L 6.5683509,9.056641 A 3,3 0 0 0 5.9999915,9 3,3 0 0 0 4.6933514,9.302734 L 0.26756945,6.7480469 A 10,10 0 0 0 -8.55e-6,9 a 10,10 0 0 0 0.07227,1.099609 l 2.93554695,1.69336 A 3,3 0 0 0 3.0000084,12 a 3,3 0 0 0 3.0000001,3 3,3 0 0 0 3,-3 3,3 0 0 0 -0.015625,-0.283203 L 13.361337,8.886719 A 3.5,3.5 0 0 0 16.000009,5.5 a 3.5,3.5 0 0 0 -3.5,-3.5 z m 0,1 a 2.5,2.5 0 0 1 2.5,2.5 2.5,2.5 0 0 1 -2.5,2.5 A 2.5,2.5 0 0 1 9.9999916,5.5 2.5,2.5 0 0 1 12.499992,3 Z m 0,1 a 1.5,1.5 0 0 0 -1.5,1.5 1.5,1.5 0 0 0 1.5,1.5 1.5,1.5 0 0 0 1.5,-1.5 1.5,1.5 0 0 0 -1.5,-1.5 z m -6.5000005,6 a 2,2 0 0 1 2,2 2,2 0 0 1 -2,2 2,2 0 0 1 -1.9589841,-1.611328 l 0.705078,0.408203 c 0.7196669,0.4155 1.633328,0.170839 2.048828,-0.548828 0.4155,-0.719667 0.170839,-1.633328 -0.5488281,-2.048828 L 5.9081947,10.003906 A 2,2 0 0 1 5.9999915,10 Z"/>
</svg>
